src/icons/fold-up.svg

<svg width="16" height="16" xmlns="http://www.w3.org/2000/svg"><path d="M1 7.4l.7.7 6-6 6 6 .7-.7L8.1 1h-.7L1 7.4zm0 6l.7.7 6-6 6 6 .7-.7L8.1 7h-.7L1 13.4z"/></svg>

<svg width="16" height="16" viewBox="0 0 16 16" fill="none" xmlns="http://www.w3.org/2000/svg">
<path d="M1 7.4L1.7 8.1L7.7 2.1L13.7 8.1L14.4 7.4L8.1 1H7.4L1 7.4ZM1 13.4L1.7 14.1L7.7 8.1L13.7 14.1L14.4 13.4L8.1 7H7.4L1 13.4Z" fill="white"/>
</svg>
